X:1
T:Title
%%score { ( 1 3 ) | 2 }
L:1/8
M:4/4
K:G
V:1 treble nm="Grand Piano"
V:3 treble 
V:2 treble 
V:1
 z4 z2[Q:1/4=100] GA | BBB_B =B2 AG | [EG][EA][EG][CE] [EG]2 [DF][CE] | [B,D][B,G][DG]A BBAG | %4
 [FA]6 GA |[M:3/4] BB B_B =B2 |[M:1/4] AG |[M:4/4] [EG][EA][EG][CE] [EG]2 [DF]E | DGGG FFEF | %9
[M:3/4] [B,DG]6 |[M:1/4] [FA][GB] |[M:4/4] [Ac]6 z2 | [GB]6 z2 | GGGG dddB | [FA]6 z2 | %15
 [DGB]BB_B =B2 AG | [EG][EA][EG][CE] [EG]2 [DF]E | DGGG FFEF |[M:7/4] [B,DG]6 z2 z2 z4 |] %19
V:2
 z4 z2 [G,B,][G,CG] | [G,DG][G,DG][G,DG][G,^CG] [G,DG]2[K:bass] [G,=CD][G,B,D] | %2
 [C,C][C,C][C,C][C,G,] [C,G,]2 [C,G,][C,G,] | %3
 [G,,G,][G,,G,][B,,G,][D,F,D] [G,D][G,D][F,A,D][E,^C] | [D,D]6 [G,B,][K:treble][G,CG] | %5
[M:3/4] [G,DG][G,DG] [G,DG][G,^CG] [G,DG]2 |[M:1/4][K:bass] [G,CD][G,B,D] | %7
[M:4/4] [C,C][C,C][C,C][C,G,] [C,G,]2 [C,G,][C,G,C] | %8
 [D,G,B,][D,B,D][D,B,D][D,B,D] [D,A,D][D,A,D][D,CD][D,CD] |[M:3/4] [G,,G,]6 |[M:1/4] [D,D][D,D] | %11
[M:4/4] [D,D]2 D,D, D,2 D,D, | G,2 G,G, G,2[K:treble] [G,DG][A,DF] | %13
 [B,D][B,D][B,D][B,D] [G,B,G][G,B,G][G,B,G][G,DG] | [D,D]2 D,D, D,C,B,,A,, | %15
 G,,[K:treble][G,DG][G,DG][G,^CG] [G,DG]2 [G,=CD][K:bass][G,B,D] | %16
 [C,C][C,C][C,C][C,G,] [C,G,]2 [C,G,][C,G,C] | %17
 [D,G,B,][D,B,D][D,B,D][D,B,D] [D,A,D][D,A,D][D,CD][D,CD] |[M:7/4] [G,,G,]6 z2 z2 z4 |] %19
V:3
 x8 | x8 | x8 | x8 | x8 |[M:3/4] x6 |[M:1/4] x2 |[M:4/4] x8 | x8 |[M:3/4] x6 |[M:1/4] x2 | %11
[M:4/4] z2 DD D2 [DGB][DFA] | D2 DD D2 BA | x8 | z2 DD D2 [DG][DGA] | x8 | x8 | x8 |[M:7/4] x14 |] %19

